outputs/icons/audio_video/microphone_sharp.svg

<svg xmlns="http://www.w3.org/2000/svg" width="1200" height="1200" fill="none"><g fill="#000" clip-path="url(#a)"><path d="M750 550c0 83-67 150-150 150s-150-67-150-150V250c0-83 67-150 150-150s150 67 150 150z"/><path d="M600 800c138 0 250-112 250-250h100c0 176.5-130.5 321.5-300 346v154H550V896c-169.5-24.5-300-169.5-300-346h100c0 138 112 250 250 250"/></g><defs><clipPath id="a"><path fill="#fff" d="M0 0h1200v1200H0z"/></clipPath></defs></svg>

<svg width="1200" height="1200" viewBox="0 0 1200 1200" fill="none" xmlns="http://www.w3.org/2000/svg"><g clip-path="url(#clip0_124_1158)"><path d="M750 550C750 633 683 700 600 700C517 700 450 633 450 550V250C450 167 517 100 600 100C683 100 750 167 750 250V550Z" fill="black"/><path d="M600 800C738 800 850 688 850 550H950C950 726.5 819.5 871.5 650 896V1050H550V896C380.5 871.5 250 726.5 250 550H350C350 688 462 800 600 800Z" fill="black"/></g><defs><clipPath id="clip0_124_1158"><path width="24" fill="white" d="M0 0H1200V1200H0V0z"/></clipPath></defs></svg>
